**kern	**kern	**dynam
*part1	*part1	*part1
*staff2	*staff1	*
*I"Piano	*	*
*clefF4	*clefG2	*
*k[f#]	*k[f#]	*
*M3/4	*M3/4	*
=1	=1	=1
!	!LO:TX:b:i:t=dextra sempre marcato	!
4r	4b^^	p
=	=	=
4E 4e	8g^^L	.
.	8b^^J	.
*clefG2	*	*
8eL 8g	4ee^^	.
8BJ	.	.
4e 4g	4b^^	.
*clefF4	*	*
=	=	=
4E 4e	2ee^^	.
*clefG2	*	*
8eL 8g	.	.
8BJ	.	.
4e 4g	4ff#^^	.
*clefF4	*	*
=	=	=
.	8qee/	.
4E 4e	8.gg^^L	.
.	16ff#^^Jk	.
*clefG2	*	*
8eL 8g	4ee^^	.
8BJ	.	.
4e 4g	4b^^	.
*clefF4	*	*
=	=	=
4BB 4B	8a^^L	.
.	8b^^J	.
*clefG2	*	*
8f#L 8a	4dd#X^^	.
8BJ	.	.
4f# 4a	4b^^	.
*clefF4	*	*
=	=	=
4BB 4B	2ff#^^	.
*clefG2	*	*
8f#L 8a	.	.
8BJ	.	.
4f# 4a	4dd#X^^	.
*clefF4	*	*
=	=	=
.	8qdd#X/	.
4BB 4B	8.aa^^L	.
.	16gg^^Jk	.
*clefG2	*	*
8f#L 8a	4ff#^^	.
8BJ	.	.
4f# 4a	4b^^	.
=	=	=
*-	*-	*-
!!!system-decoration: {(s1,s2)}
